X:1
T:Title
%%score ( 1 2 ) { 3 | 4 }
L:1/8
Q:1/4=105
M:4/4
K:Bb
V:1 treble nm="Grand Piano, Soprano"
V:2 treble 
V:3 bass nm="Choir Pad, Basilicata, Adam Geibel 1901"
V:4 bass 
V:1
 [DB]2 F2 DB,DF | B2 [Fd][Ec] [DB]4 | [Ec]2 G2 ECEG | c2 [Ge][Fd] [Ec]4 | [Fc]2 [=Ec]2 [Fc]2 AB | %5
w: By~Adam~Geibel,~1901 * * * * *|||||
 [Fc]2 [Fd]2 [Fc]4 | ABcd cBA[GB] | [FA]2 [=EG]2 F2 F>F |[M:6/8] e2 e e2 e | [EGe]3 [CE]2- [CEF] | %10
w: |||||
 d2 d d2 d | [DFd]3 D2 D | c2 c c2 c | [DAc]3 D2 D | B2 B B2 B | [B,DB]3 [DB]2 [DB] | [Gc]3 [Gc]3 | %17
w: |||||||
 [G_d]3 [Gd]3 | [^Fd]3 DFA | z3 [Gd]2 [Gd] | [Ge]2 [Ge] [Gd]2 [Gc] | [Bf]3 [FA]3 | [FB]6- | %23
w: ||||||
 [FB]3 z3 |] %24
w: |
V:2
 x8 | x8 | x8 | x8 | z4 z2 F2 | x8 | F2 F2 F4 | x8 |[M:6/8] [EA]3 [E_A]3 | z3 .F3 | [DF]3 [DF]3 | %11
 x6 | [D^F]3 [DF]3 | x6 | [B,D]3 [B,D]3 | x6 | x6 | x6 | x6 | x6 | x6 | x6 | x6 | x6 |] %24
V:3
 F,2 F,2 D,B,,D,F, | B,2 A,2 B,4 | G,2 G,2 E,C,E,G, | C2 =B,2 C4 | A,2 B,2 C2 F,G, | A,2 B,2 A,4 | %6
 C2 CB, C3 D | C2[K:bass] B,2 A,2 z2 |[M:6/8] F,3 ^F,3 | G,3 A,3 | B,3 F,3 | D,3 B,,3 | D,3 A,3 | %13
 ^F,3 D,3 | G,3 D,2 B,, | G,,3 B,2 B, | G,3 G,3 | A,3 A,3 | A,3 D,^F,A, | z3 =B,2 B, | %20
 C2 C =B,2[K:treble] C | D3 E3 | D6- | D3 z3 |] %24
V:4
 B,,2 z2 z4 | z2 F,2 B,,4 | C,2 z2 z4 | z2 G,2 C,4 | F,2 G,2 A,2 z2 | F,2 B,,D, F,4 | %6
 F,G, .A,2 A,G,F,B,, | C,2 C,2 F,2 z2 |[M:6/8] F,,3 ^F,,3 | G,,3 A,,3 | B,,3 F,,3 | D,,3 B,,,3 | %12
 D,,3 A,,3 | ^F,,3 D,,3 | G,,3 z3 | z3 G,2 G, | E,3 E,3 | E,3 E,3 | D,3 z3 | z3 G,2 G, | %20
 C,2 C, D,2 E, | F,3 F,3 | B,,6- | B,,3 z3 |] %24

